abel/img/choose2.svg

<svg width="140" height="85" viewBox="0 0 140 85" fill="none" xmlns="http://www.w3.org/2000/svg">
<path d="M139.341 35.0073C139.341 34.5589 139.242 34.1161 139.051 33.71C138.86 33.3039 138.581 32.9445 138.235 32.6571L119.155 16.8307L119.135 16.817L110.495 9.64709C109.077 8.47221 107.288 7.82861 105.441 7.82822H94.8088C94.8064 5.75279 93.9755 3.76306 92.4985 2.29552C91.0215 0.827968 89.0189 0.00243119 86.9301 0H8.53741C6.449 0.00202524 4.44667 0.827012 2.96965 2.29399C1.49264 3.76096 0.661547 5.75013 0.658691 7.82515V62.2016C0.660731 64.2772 1.49146 66.2671 2.96857 67.7348C4.44567 69.2024 6.44847 70.0278 8.53741 70.0298H17.5025C18.222 74.0375 20.3376 77.6658 23.4788 80.2794C26.62 82.8931 30.5866 84.3253 34.6837 84.3253C38.7809 84.3253 42.7474 82.8931 45.8886 80.2794C49.0299 77.6658 51.1455 74.0375 51.865 70.0298H97.4438C98.1651 74.036 100.281 77.6625 103.422 80.2747C106.563 82.8868 110.529 84.3181 114.625 84.3181C118.721 84.3181 122.687 82.8868 125.828 80.2747C128.969 77.6625 131.085 74.036 131.806 70.0298H136.26C137.077 70.0298 137.861 69.7072 138.439 69.133C139.017 68.5587 139.341 67.7799 139.341 66.9678V38.3939C139.341 38.371 139.341 38.3495 139.341 38.3266V35.0073ZM131.757 35.2645H106.332V22.2414H116.061L131.757 35.2645ZM6.82237 62.2016V7.82515C6.82278 7.37333 7.0036 6.94014 7.32514 6.62066C7.64669 6.30117 8.08268 6.12151 8.53741 6.1211H86.9286C87.3836 6.1211 87.82 6.30059 88.1418 6.62012C88.4637 6.93964 88.6448 7.37307 88.6452 7.82515V63.9057H51.8665C51.1452 59.8995 49.0289 56.273 45.8879 53.6608C42.7469 51.0487 38.7813 49.6174 34.6853 49.6174C30.5892 49.6174 26.6237 51.0487 23.4827 53.6608C20.3417 56.273 18.2253 59.8995 17.504 63.9057H8.53741C8.08268 63.9053 7.64669 63.7256 7.32514 63.4061C7.0036 63.0866 6.82278 62.6534 6.82237 62.2016ZM34.6837 78.1949C32.4481 78.1952 30.2626 77.537 28.4034 76.3036C26.5442 75.0702 25.0946 73.3168 24.238 71.2651C23.3814 69.2134 23.1561 66.9554 23.5906 64.7765C24.0251 62.5977 25.0999 60.5956 26.6791 59.0235C28.2584 57.4513 30.2713 56.3796 32.4634 55.9437C34.6555 55.5079 36.9285 55.7274 38.9951 56.5747C41.0616 57.4219 42.8291 58.8588 44.074 60.7038C45.3189 62.5487 45.9855 64.7189 45.9894 66.9402V66.9678V66.9892C45.9789 69.9627 44.7834 72.8109 42.6647 74.9109C40.546 77.0109 37.6764 78.1917 34.6837 78.1949ZM114.625 78.1949C112.39 78.1943 110.205 77.5355 108.346 76.3017C106.488 75.0679 105.039 73.3145 104.183 71.263C103.327 69.2115 103.102 66.9539 103.537 64.7754C103.971 62.5969 105.046 60.5954 106.625 59.0235C108.204 57.4516 110.217 56.38 112.408 55.944C114.6 55.5079 116.873 55.7271 118.939 56.5738C121.005 57.4204 122.773 58.8566 124.018 60.7009C125.263 62.5452 125.931 64.7147 125.935 66.9356V66.9678V66.9953C125.923 69.9685 124.726 72.8159 122.607 74.9147C120.487 77.0135 117.617 78.1929 114.625 78.1949ZM131.809 63.9057C131.088 59.8995 128.972 56.273 125.831 53.6608C122.69 51.0487 118.724 49.6174 114.628 49.6174C110.532 49.6174 106.567 51.0487 103.426 53.6608C100.285 56.273 98.1682 59.8995 97.4469 63.9057H94.8088V13.9524H105.441C105.843 13.9526 106.233 14.0929 106.541 14.3489L108.677 16.1173H103.248C102.431 16.1173 101.647 16.4399 101.069 17.0141C100.491 17.5884 100.167 18.3672 100.167 19.1794V38.3266C100.167 39.1387 100.491 39.9175 101.069 40.4918C101.647 41.066 102.431 41.3886 103.248 41.3886H133.178V63.9057H131.809Z" fill="black"/>
</svg>

<svg width="140" height="85" fill="none" xmlns="http://www.w3.org/2000/svg"><path d="M139.341 35.007a3.048 3.048 0 0 0-1.106-2.35l-19.08-15.826-.02-.014-8.64-7.17a7.926 7.926 0 0 0-5.054-1.819H94.809a7.812 7.812 0 0 0-2.31-5.532A7.914 7.914 0 0 0 86.93 0H8.537A7.912 7.912 0 0 0 2.97 2.294 7.81 7.81 0 0 0 .659 7.825v54.377a7.81 7.81 0 0 0 2.31 5.533 7.912 7.912 0 0 0 5.568 2.295h8.966a17.317 17.317 0 0 0 5.976 10.25 17.52 17.52 0 0 0 11.205 4.045 17.52 17.52 0 0 0 11.205-4.046 17.316 17.316 0 0 0 5.976-10.25h45.579a17.318 17.318 0 0 0 5.978 10.246 17.523 17.523 0 0 0 11.203 4.043c4.096 0 8.062-1.431 11.203-4.043a17.317 17.317 0 0 0 5.978-10.245h4.454c.817 0 1.601-.323 2.179-.897a3.051 3.051 0 0 0 .902-2.165V38.394v-3.387zm-7.584.258h-25.425V22.24h9.729l15.696 13.023zM6.822 62.201V7.825a1.7 1.7 0 0 1 .503-1.204c.322-.32.758-.5 1.212-.5H86.93c.455 0 .891.18 1.213.5a1.7 1.7 0 0 1 .503 1.204v56.08H51.867a17.319 17.319 0 0 0-5.98-10.244 17.522 17.522 0 0 0-11.202-4.044 17.522 17.522 0 0 0-11.202 4.044 17.319 17.319 0 0 0-5.979 10.245H8.537c-.454 0-.89-.18-1.212-.5a1.7 1.7 0 0 1-.503-1.204zm27.862 15.993a11.36 11.36 0 0 1-6.28-1.891 11.25 11.25 0 0 1-4.166-5.039 11.168 11.168 0 0 1-.647-6.489 11.213 11.213 0 0 1 3.088-5.752 11.33 11.33 0 0 1 5.784-3.08 11.375 11.375 0 0 1 6.532.63 11.292 11.292 0 0 1 5.079 4.13 11.183 11.183 0 0 1 1.915 6.236v.049a11.209 11.209 0 0 1-3.324 7.922 11.355 11.355 0 0 1-7.981 3.284zm79.941 0c-2.235 0-4.42-.66-6.279-1.893a11.253 11.253 0 0 1-4.163-5.039 11.166 11.166 0 0 1-.646-6.488 11.207 11.207 0 0 1 3.088-5.752 11.332 11.332 0 0 1 5.783-3.079 11.375 11.375 0 0 1 6.531.63 11.292 11.292 0 0 1 5.079 4.127 11.179 11.179 0 0 1 1.917 6.235v.059a11.21 11.21 0 0 1-3.328 7.92 11.357 11.357 0 0 1-7.982 3.28zm17.184-14.29a17.317 17.317 0 0 0-5.978-10.244 17.523 17.523 0 0 0-11.203-4.044 17.52 17.52 0 0 0-11.202 4.044 17.32 17.32 0 0 0-5.98 10.245H94.81V13.952h10.632c.402 0 .792.14 1.1.397l2.136 1.768h-5.429c-.817 0-1.601.323-2.179.897a3.051 3.051 0 0 0-.902 2.165v19.148c0 .812.324 1.59.902 2.165a3.092 3.092 0 0 0 2.179.897h29.93v22.517h-1.369z" fill="#000"/></svg>
